src/pos-icons/clock-start.svg

<svg height="24" viewBox="0 0 24 24" width="24" xmlns="http://www.w3.org/2000/svg"><path d="m12 1c-3.86 0-7 3.14-7 7a7 7 0 0 0 7 7c3.86 0 7-3.13 7-7 0-3.86-3.14-7-7-7m0 2.15c2.67 0 4.85 2.17 4.85 4.85s-2.18 4.85-4.85 4.85a4.85 4.85 0 0 1 -4.85-4.85 4.85 4.85 0 0 1 4.85-4.85m-1 1.85v3.69l3.19 1.84.75-1.3-2.44-1.41v-2.82m-8.5 11v8h2v-3h12v3l4-4-4-4v3h-12v-3"/></svg>

<?xml version="1.0" encoding="UTF-8"?><!DOCTYPE svg PUBLIC "-//W3C//DTD SVG 1.1//EN" "http://www.w3.org/Graphics/SVG/1.1/DTD/svg11.dtd"><svg xmlns="http://www.w3.org/2000/svg" xmlns:xlink="http://www.w3.org/1999/xlink" version="1.1" id="mdi-clock-start" width="24" height="24" viewBox="0 0 24 24"><path d="M12,1C8.14,1 5,4.14 5,8A7,7 0 0,0 12,15C15.86,15 19,11.87 19,8C19,4.14 15.86,1 12,1M12,3.15C14.67,3.15 16.85,5.32 16.85,8C16.85,10.68 14.67,12.85 12,12.85A4.85,4.85 0 0,1 7.15,8A4.85,4.85 0 0,1 12,3.15M11,5V8.69L14.19,10.53L14.94,9.23L12.5,7.82V5M4,16V24H6V21H18V24L22,20L18,16V19H6V16" /></svg>
